icons/glyphs/glyph-pencil.svg

<?xml version="1.0" encoding="UTF-8" standalone="no"?><svg height="22" viewBox="0 0 5.8208332 5.8208335" width="22" xmlns="http://www.w3.org/2000/svg"><sodipodi:namedview/><metadata><rdf:RDF><cc:Work><dc:format>image/svg+xml</dc:format><dc:type/><dc:title/></cc:Work></rdf:RDF></metadata><path d="m4.6795155.11286762c-.1504148-.1504264-.3928449-.1504264-.5432597 0l-.4245232.4245559 1.5717664 1.57188708.4245234-.4245558c.1504148-.1504263.1504145-.3928753-.0000001-.5433015zm-1.2421237.69891773-2.67943083 2.67963635 1.57176663 1.5718872 2.6794305-2.6796365zm-2.95377163 2.95399815-.2412678 1.0275011-.24235237 1.0275009 1.0279644-.2418288 1.0274226-.2412862-.7861545-.7862149z" fill="#d0d0d0" stroke-linecap="round" stroke-linejoin="round" stroke-width="1.570368"/></svg>

<?xml version="1.0" encoding="UTF-8" standalone="no"?>
<!-- Created with Inkscape (http://www.inkscape.org/) -->

<svg
   xmlns:dc="http://purl.org/dc/elements/1.1/"
   xmlns:cc="http://creativecommons.org/ns#"
   xmlns:rdf="http://www.w3.org/1999/02/22-rdf-syntax-ns#"
   xmlns:svg="http://www.w3.org/2000/svg"
   xmlns="http://www.w3.org/2000/svg"
   xmlns:sodipodi="http://sodipodi.sourceforge.net/DTD/sodipodi-0.dtd"
   xmlns:inkscape="http://www.inkscape.org/namespaces/inkscape"
   width="22"
   height="22"
   viewBox="0 0 5.8208332 5.8208335"
   version="1.1"
   id="svg8"
   inkscape:version="0.92+devel 15724 custom"
   sodipodi:docname="GLYPH-PENCIL.svg">
  <defs
     id="defs2" />
  <sodipodi:namedview
     id="base"
     pagecolor="#002466"
     bordercolor="#ffffff"
     borderopacity="0.37647059"
     inkscape:pageopacity="1"
     inkscape:pageshadow="2"
     inkscape:zoom="26.323657"
     inkscape:cx="11"
     inkscape:cy="10.887307"
     inkscape:document-units="px"
     inkscape:current-layer="svg8"
     inkscape:document-rotation="0"
     showgrid="false"
     inkscape:showpageshadow="false"
     borderlayer="true"
     units="px"
     inkscape:window-width="1920"
     inkscape:window-height="1051"
     inkscape:window-x="0"
     inkscape:window-y="0"
     inkscape:window-maximized="1" />
  <metadata
     id="metadata5">
    <rdf:RDF>
      <cc:Work
         rdf:about="">
        <dc:format>image/svg+xml</dc:format>
        <dc:type
           rdf:resource="http://purl.org/dc/dcmitype/StillImage" />
        <dc:title></dc:title>
      </cc:Work>
    </rdf:RDF>
  </metadata>
  <path
     style="fill:#d0d0d0;stroke-width:1.57036781;stroke-linecap:round;stroke-linejoin:round"
     d="m 4.6795155,0.11286762 c -0.1504148,-0.1504264 -0.3928449,-0.1504264 -0.5432597,0 L 3.7117326,0.53742352 5.283499,2.1093106 5.7080224,1.6847548 c 0.1504148,-0.1504263 0.1504145,-0.3928753 -1e-7,-0.5433015 z M 3.4373918,0.81178535 0.75796097,3.4914217 2.3297276,5.0633089 5.0091581,2.3836724 Z M 0.48362017,3.7657835 0.24235237,4.7932846 0,5.8207855 1.0279644,5.5789567 2.055387,5.3376705 1.2692325,4.5514556 Z"
     id="rect4269"
     inkscape:connector-curvature="0"
     inkscape:label="#" />
</svg>
